X:1
T: Lady Forbes of Newe
C:Alexander Walker
R:Reel
Q: 232
K:A
M:4/4
L:1/8
|:c|AA, A,1/2A,1/2A, CA, EC|FB, FE FB, B,G|AA, A,1/2A,1/2A, CA, EC|B,d cB cA Ac|
AA, A,1/2A,1/2A, CA, EC|FB, FE FB, B,G|AA, A,1/2A,1/2A, CA, EC|B,d cB cA Ag|
ae cA eA cA|fB dB dB bg|aA cA eA cB|AE FD CA, A,g|
ae cA eA cA|fB dB dB bg|ae ce fd Bd|cA GB AA, A,:|
